X: 621
U:~=!turn!
T: Welcome, Charlie Stewart
C:
O:Scotland
B:Keith Norman MacDonald : "The Skye collection of the best reels & strathspeys extant" : 1887
Z:Ralph Palmer
R:Reel
M:C|
L:1/8
K:D
B |\
(AF)(TED) {/F}G3 B | (GF)(TED) E3 B | (AF)(TED) {/F}GAB{/c}d | AG{/G}FE {FE}D2 D :|
A |\
{/c}defd {/f}gfec | {/c}defd ecTBA | {/c}defd {/f}gfeg | f/2g/2a ef {/c}d3 A |
{/c}defd {/f}gfec | {/c}defa ec{dc}BA | {/c}defd {/f}gfeg | faef {/c}d2 d |]
W:Prince Charlie of course.


